X: 7
T: Alons fere nos barbes
N: Derived from Com3001-Alons_fere_nos_barbes.krn
C: Loyset Comp\`ere
%%abc-version 2.0
%%abcx-abcm2ps-target-version 5.9.1 (29 Sep 2008)
%%abc-creator hum2abc beta
%%abcx-conversion-date 2019/02/16 20:28:09
%%abc-edited-by Jesse Rodin
%%abc-edited-by Jesse Rodin 24 May 2016
%%abcx-initial-encoding-date 2016/05/24/
%%humdrum-veritas 3561642543
%%humdrum-veritas-data 3141712034
%%linebreak <none>
%%barnumbers 0
L: 1/4
M: 2/1
Q: 1/2=120
%%staves [1 2 3 4]
V: 1 clef=treble
V: 2 clef=treble-8
V: 3 clef=treble-8
V: 4 clef=bass
K: F
[V:1] z4G4 | 
[V:2] d4e4- | 
[V:3] z8 | 
[V:4] G,4C4- | 
[V:1] A6A2 | 
[V:2] e2e2e2e2 | 
[V:3] z8 | 
[V:4] C2C2C2C2 | 
[V:1] A2A2B4 | 
[V:2] f4f4 | 
[V:3] z8 | 
[V:4] D4D4 | 
[V:1] B4z4 | 
[V:2] d8 | 
[V:3] G4A4- | 
[V:4] z4D,4 | 
[V:1] z4A4 | 
[V:2] c4f4 | 
[V:3] A2A2A2A2 | 
[V:4] F,8 | 
[V:1] G3ABcd2- | 
[V:2] e2d4cB | 
[V:3] B4B4 | 
[V:4] G,6D,2 | 
[V:1] d2c2B2AG | 
[V:2] A4d4 | 
[V:3] z8 | 
[V:4] F,4G,4 | 
[V:1] F4z2G2 | 
[V:2] z2d3cBA | 
[V:3] A4G3A | 
[V:4] D,4z2G,2- | 
[V:1] G2F2G2A2 | 
[V:2] G2A2B2c2 | 
[V:3] Bcd4c2 | 
[V:4] G,2D,2G,2C,2 | 
[V:1] B3A/G/F4- | 
[V:2] d8- | 
[V:3] B2B2A4- | 
[V:4] G,4D,4- | 
[V:1] F4z4 | 
[V:2] d4z4 | 
[V:3] A4z4 | 
[V:4] D,4z4 | 
[V:1] G4A4- | 
[V:2] d4f4- | 
[V:3] B4c4- | 
[V:4] G,4F,4- | 
[V:1] A2A2A2A2 | 
[V:2] f2f2f2f2 | 
[V:3] c2c2c2c2 | 
[V:4] F,2F,2F,2A,2 | 
[V:1] B4B4 | 
[V:2] g4d2f2 | 
[V:3] d4d4 | 
[V:4] G,6D,2 | 
[V:1] A4G2A2- | 
[V:2] f4d2f2- | 
[V:3] c4B2c2- | 
[V:4] F,4G,2F,2- | 
[V:1] A2G4^F2 | 
[V:2] fec2d4- | 
[V:3] cBG2A4 | 
[V:4] F,G,E,2D,4 | 
[V:1] G8 | 
[V:2] d2cB_e4 | 
[V:3] G4z4 | 
[V:4] z4C,4 | 
[V:1] z8 | 
[V:2] d4z4 | 
[V:3] G4d4- | 
[V:4] G,6F,2 | 
[V:1] z8 | 
[V:2] z8 | 
[V:3] d2c2c3B | 
[V:4] F,2E,2F,4 | 
[V:1] z8 | 
[V:2] z8 | 
[V:3] c4c4 | 
[V:4] F,4C,4- | 
[V:1] z8 | 
[V:2] z8 | 
[V:3] G6A2 | 
[V:4] C,2D,2E,2F,2 | 
[V:1] z8 | 
[V:2] z8 | 
[V:3] B2c2A4 | 
[V:4] D,4C,4- | 
[V:1] z4G4 | 
[V:2] z4G4 | 
[V:3] G8 | 
[V:4] C,4z4 | 
[V:1] F6E2 | 
[V:2] d6c2 | 
[V:3] z8 | 
[V:4] z8 | 
[V:1] D2D2C4- | 
[V:2] c2=B2c4 | 
[V:3] z8 | 
[V:4] z8 | 
[V:1] C4E4 | 
[V:2] c8 | 
[V:3] z8 | 
[V:4] z8 | 
[V:1] D2G2B2A2- | 
[V:2] G6A2 | 
[V:3] z8 | 
[V:4] z8 | 
[V:1] AGG4^F2 | 
[V:2] B2c2A4 | 
[V:3] z8 | 
[V:4] z8 | 
[V:1] G8- | 
[V:2] G4d4 | 
[V:3] z4G4 | 
[V:4] z8 | 
[V:1] G8 | 
[V:2] e6e2 | 
[V:3] c6c2 | 
[V:4] z8 | 
[V:1] G4A4- | 
[V:2] e2e2f4 | 
[V:3] c2c2c4 | 
[V:4] C,4F,4- | 
[V:1] A2A2A2A2 | 
[V:2] f4f4 | 
[V:3] A4c4 | 
[V:4] F,2F,2F,2A,2 | 
[V:1] B4B4 | 
[V:2] g6d2 | 
[V:3] d6B2 | 
[V:4] G,4G,4 | 
[V:1] A4G2d2- | 
[V:2] f4e2d2- | 
[V:3] c4B4 | 
[V:4] F,4G,4 | 
[V:1] d2c2B2A2 | 
[V:2] dcA2B2c2 | 
[V:3] A4z2d2 | 
[V:4] z2F,2G,2F,2 | 
[V:1] B2AGF4- | 
[V:2] G4A2d2- | 
[V:3] d2c2d2B2 | 
[V:4] G,2E,2D,4- | 
[V:1] F4G4 | 
[V:2] dcd4e2 | 
[V:3] A4B4 | 
[V:4] D,4G,4 | 
[V:1] A6A2 | 
[V:2] f6f2 | 
[V:3] c6c2 | 
[V:4] F,6F,2 | 
[V:1] A2A2B4 | 
[V:2] f2f2f4 | 
[V:3] c2c2d4 | 
[V:4] F,2F,2B,,4 | 
[V:1] B4A4 | 
[V:2] f4f4 | 
[V:3] d4c4 | 
[V:4] B,,2B,,2F,4 | 
[V:1] G2A4G2- | 
[V:2] d2f2d2e2 | 
[V:3] B2A2B4 | 
[V:4] G,2F,2G,4 | 
[V:1] G2^F2G4 | 
[V:2] d4z2B2 | 
[V:3] A4G2d2 | 
[V:4] D,4z2G,2 | 
[V:1] z2B2B2A2 | 
[V:2] d2e2f4 | 
[V:3] d3c/B/c2c2 | 
[V:4] G,4F,4 | 
[V:1] B4z2B2 | 
[V:2] z2f2f2d2 | 
[V:3] B2d2d4 | 
[V:4] B,,4z2B,,2 | 
[V:1] B2A2B4 | 
[V:2] f2f2d3e | 
[V:3] c4B2d2 | 
[V:4] F,4G,4 | 
[V:1] A4G2A2- | 
[V:2] f3edcBA | 
[V:3] d2c2B2c2- | 
[V:4] D,2F,2G,2F,2 | 
[V:1] A2G4^F2 | 
[V:2] B2c2d4- | 
[V:3] cBG2A4 | 
[V:4] G,2E,2D,4 | 
[V:1] G8 |]  
[V:2] d8 |]  
[V:3] G8 |]  
[V:4] G,8 |]  



